X:1
T: The Fiddler's Welcome to Los Angeles
C:
R:Reel
Q: 232
K:A
M:4/4
L:1/8
A2|:c2 BA a2 e2|fg af e2 AB|c2 BA e2 dc|c2 B2 B2 AB|
c2 BA a2 e2|fg af e2 AB|c2 e2 ef ed|c2 A2 A2 fg|
ag fa gf eg|fe df e2 AB|c2 e2 ef eA|c2 B2 B2 AB|
c2 BA a2 e2|fg af e2 fg|a2 A2 B2 AB|1c2 A2 A2 AB:|2c2 A2 A2||
